X:1
T:Variations 5
L:1/8
M:4/4
V:1
V:2 clef=bass
K:C
[V:1] z e2 c AEGE | FABe d2 cB | BGED CDEG | _BAGF F ^C3 :|
[V:2] [D,F,C]8 | [G,,F,B,]8 | [C,E,B,]8 | [A,,G,^C]8 :|